X:213
T: SIEHST DU AM ABEND DIE WOLKEN ZIEHN
N: B0251
O: Europa, Mitteleuropa, Deutschland
R: Stimmungs - Lied, Sehnsucht
M: 3/8
L: 1/16
K: Ab
 | E2E2E2 | A2A2A2 | c4B2 | B6 |
B3AG2 | G3FE2 | E4c2 | A4
c2 | c3BAG | B2A2A2 | cBB2B2 | B4
B2 | e2d2c2 | c2B2A2 | A2G2A2 | B6 |
c2B2A2 | d3cB2 | B2c2d2 | e6 |
e2d2B2 | c3BA2 | d2F2G2 | A6

@@@ Tune index: 2016
